app/img/icons/trash-black.svg

<svg width="17" height="17" viewBox="0 0 17 17" fill="none" xmlns="http://www.w3.org/2000/svg">
<path d="M6.375 6.375H7.4375V12.75H6.375V6.375Z" fill="#555555"/>
<path d="M9.5625 6.375H10.625V12.75H9.5625V6.375Z" fill="#555555"/>
<path d="M2.125 3.1875V4.25H3.1875V14.875C3.1875 15.1568 3.29944 15.427 3.4987 15.6263C3.69796 15.8256 3.96821 15.9375 4.25 15.9375H12.75C13.0318 15.9375 13.302 15.8256 13.5013 15.6263C13.7006 15.427 13.8125 15.1568 13.8125 14.875V4.25H14.875V3.1875H2.125ZM4.25 14.875V4.25H12.75V14.875H4.25Z" fill="#555555"/>
<path d="M6.375 1.0625H10.625V2.125H6.375V1.0625Z" fill="#555555"/>
</svg>

<svg width="17" height="17" fill="none" xmlns="http://www.w3.org/2000/svg"><path d="M6.375 6.375h1.063v6.375H6.375V6.375zm3.188 0h1.062v6.375H9.562V6.375z" fill="#555"/><path d="M2.125 3.188V4.25h1.063v10.625a1.063 1.063 0 001.062 1.063h8.5a1.062 1.062 0 001.063-1.063V4.25h1.062V3.187H2.125zM4.25 14.874V4.25h8.5v10.625h-8.5zM6.375 1.063h4.25v1.062h-4.25V1.062z" fill="#555"/></svg>
